X: 17166
T: Hen-pen-dirlo, The
R: reel
M: 4/4
K: Cmajor
|:B|c2cB cdeg|ga2a gede|fAAG cdce|agea gede|
cEGc AdcA|CB,CA GEDE|FA, (3A,A,A, B,G,GB|cfdB c3:|
|:e|g2ec acgc|acec dcAc|Gc (3ccc ecgc|acge feee|
g2ec acgc|acec dcAc|FA (3AAA BGBB|cedB c3:|

